
;PYCAM-META-DATA: Timestamp: 2020-12-18 10:07:04.241619
;PYCAM-META-DATA: Version: 0.5.1
;Estimated machine time: 3 minutes
G40 (disable tool radius compensation)
G49 (disable tool length compensation)
G80 (cancel modal motion)
G54 (select coordinate system 1)
G90 (disable incremental moves)
G21 (metric)
G64 P0.100000 (continuous mode with tolerance)
F1200.00000
S1000.00000
;PYCAM_TOOLPATH_SETTINGS: START
;[Bounds]
;maxz = 0.0
;maxx = 378.0
;maxy = 378.0
;minx = -33.0
;miny = -33.0004177525
;minz = -11.5
;
;[Tool]
;torus_radius = 0.25
;speed = 1000.0
;shape = CylindricalCutter
;tool_radius = 1.5
;feedrate = 1200.0
;
;[Process]
;engrave_offset = -1.5
;step_down = 4.0
;generator = EngraveCutter
;postprocessor = SimpleCutter
;milling_style = conventional
;material_allowance = 0.0
;pocketing_type = none
;path_direction = x
;
;PYCAM_TOOLPATH_SETTINGS: END
T1 M6
G0 Z10.0000
M3 (start spindle)
G04 P3 (wait for 3 seconds)
 X346.5000 Y172.5000
G1 Z-3.8333
 Y171.9575
 X346.4859 Y170.3368
 X346.4466 Y168.1802
 X346.3800 Y166.0228
 X346.2852 Y163.8715
 X346.1662 Y161.7245
 X346.0199 Y159.5787
 X345.8474 Y157.4383
 X345.6487 Y155.3018
 X345.4238 Y153.1706
 X345.1736 Y151.0442
 X344.8962 Y148.9217
 X344.5936 Y146.8048
 X344.2657 Y144.6931
 X343.9107 Y142.5889
 X343.5315 Y140.4894
 X343.1269 Y138.3957
 X342.6951 Y136.3085
 X342.2393 Y134.2283
 X341.7591 Y132.1540
 X341.2517 Y130.0871
 X340.7212 Y128.0275
 X340.1644 Y125.9759
 X339.5845 Y123.9317
 X338.9792 Y121.8947
 X338.3486 Y119.8659
 X337.6931 Y117.8460
 X337.0154 Y115.8348
 X336.3112 Y113.8312
 X335.5839 Y111.8381
 X334.8313 Y109.8527
 X334.0547 Y107.8777
 X333.2550 Y105.9133
 X332.4319 Y103.9575
 X331.5845 Y102.0125
 X330.7129 Y100.0765
 X329.8171 Y98.1523
 X328.8984 Y96.2390
 X327.9571 Y94.3359
 X326.9898 Y92.4446
 X326.0024 Y90.5649
 X324.9896 Y88.6966
 X323.9558 Y86.8404
 X322.8975 Y84.9958
 X321.8162 Y83.1640
 X320.7127 Y81.3447
 X319.5859 Y79.5381
 X318.4372 Y77.7449
 X317.2662 Y75.9647
 X316.0727 Y74.1977
 X314.8561 Y72.4445
 X313.6174 Y70.7054
 X312.3569 Y68.9807
 X311.0756 Y67.2696
 X309.7692 Y65.5734
 X308.4440 Y63.8924
 X307.0951 Y62.2257
 X305.7244 Y60.5749
 X304.3335 Y58.9395
 X302.9204 Y57.3197
 X301.4870 Y55.7156
 X300.0303 Y54.1277
 X298.5537 Y52.5564
 X297.0566 Y51.0024
 X295.9187 Y49.8465
 X295.5362 Y49.4641
 X295.1539 Y49.0809
 X293.9974 Y47.9434
 X292.4439 Y46.4463
 X290.8715 Y44.9695
 X289.2851 Y43.5140
 X287.6810 Y42.0794
 X286.0609 Y40.6663
 X284.4250 Y39.2751
 X282.7747 Y37.9051
 X281.1071 Y36.5566
 X279.4260 Y35.2306
 X277.7311 Y33.9259
 X276.0183 Y32.6432
 X274.2948 Y31.3829
 X272.5554 Y30.1442
 X270.8013 Y28.9280
 X269.0353 Y27.7344
 X267.2548 Y26.5629
 X265.4614 Y25.4141
 X263.6547 Y24.2876
 X261.8352 Y23.1842
 X260.0044 Y22.1034
 X258.1594 Y21.0453
 X256.3035 Y20.0104
 X254.4353 Y18.9985
 X252.5551 Y18.0098
 X250.6637 Y17.0442
 X248.7605 Y16.1023
 X246.8481 Y15.1836
 X244.9233 Y14.2885
 X242.9885 Y13.4168
 X241.0418 Y12.5690
 X239.0871 Y11.7451
 X237.1212 Y10.9450
 X235.1472 Y10.1689
 X233.1619 Y9.4168
 X231.1677 Y8.6889
 X229.1646 Y7.9854
 X227.1544 Y7.3062
 X225.1348 Y6.6514
 X223.1052 Y6.0211
 X221.0688 Y5.4155
 X219.0251 Y4.8347
 X216.9724 Y4.2786
 X214.9128 Y3.7476
 X212.8469 Y3.2414
 X210.7719 Y2.7604
 X208.6910 Y2.3046
 X206.6041 Y1.8740
 X204.5110 Y1.4689
 X202.4109 Y1.0892
 X200.3068 Y0.7351
 X198.1955 Y0.4066
 X196.0782 Y0.1039
 X193.9559 Y-0.1730
 X191.8296 Y-0.4240
 X189.6982 Y-0.6489
 X187.5618 Y-0.8477
 X185.4213 Y-1.0203
 X183.2758 Y-1.1666
 X181.1283 Y-1.2865
 X178.9768 Y-1.3800
 X176.8202 Y-1.4468
 X174.6632 Y-1.4869
 X173.0422 Y-1.5004
 X171.9578
 X170.3368 Y-1.4869
 X168.1798 Y-1.4468
 X166.0252 Y-1.3800
 X163.8717 Y-1.2865
 X161.7242 Y-1.1666
 X159.5787 Y-1.0203
 X157.4382 Y-0.8477
 X155.3028 Y-0.6489
 X153.1704 Y-0.4240
 X151.0441 Y-0.1730
 X148.9217 Y0.1039
 X146.8064 Y0.4066
 X144.6953 Y0.7351
 X142.5892 Y1.0892
 X140.4890 Y1.4689
 X138.3959 Y1.8740
 X136.3090 Y2.3046
 X134.2281 Y2.7604
 X132.1541 Y3.2414
 X130.0873 Y3.7475
 X128.0275 Y4.2787
 X125.9759 Y4.8347
 X123.9313 Y5.4155
 X121.8947 Y6.0211
 X119.8661 Y6.6514
 X117.8468 Y7.3061
 X115.8345 Y7.9853
 X113.8322 Y8.6889
 X111.8380 Y9.4168
 X109.8538 Y10.1689
 X107.8790 Y10.9449
 X105.9129 Y11.7451
 X103.9581 Y12.5691
 X102.0123 Y13.4169
 X100.0777 Y14.2885
 X98.1528 Y15.1835
 X96.2391 Y16.1023
 X94.3366 Y17.0442
 X92.4452 Y18.0099
 X90.5652 Y18.9985
 X88.6969 Y20.0104
 X86.8405 Y21.0453
 X84.9962 Y22.1034
 X83.1645 Y23.1842
 X81.3452 Y24.2877
 X79.5386 Y25.4141
 X77.7450 Y26.5629
 X75.9649 Y27.7344
 X74.1980 Y28.9281
 X72.4449 Y30.1443
 X70.7057 Y31.3828
 X68.9806 Y32.6433
 X67.2700 Y33.9260
 X65.5739 Y35.2304
 X63.8926 Y36.5568
 X62.2262 Y37.9051
 X60.5752 Y39.2750
 X58.9396 Y40.6664
 X57.3198 Y42.0794
 X55.7158 Y43.5138
 X54.1281 Y44.9695
 X52.5567 Y46.4464
 X51.0029 Y47.9434
 X49.8470 Y49.0803
 X49.4637 Y49.4636
 X49.0806 Y49.8468
 X47.9435 Y51.0025
 X46.4465 Y52.5563
 X44.9695 Y54.1278
 X43.5139 Y55.7156
 X42.0794 Y57.3195
 X40.6664 Y58.9394
 X39.2748 Y60.5749
 X37.9050 Y62.2260
 X36.5567 Y63.8922
 X35.2303 Y65.5736
 X33.9257 Y67.2696
 X32.6431 Y68.9804
 X31.3825 Y70.7055
 X30.1440 Y72.4446
 X28.9279 Y74.1977
 X27.7341 Y75.9645
 X26.5626 Y77.7448
 X25.4137 Y79.5382
 X24.2874 Y81.3448
 X23.1837 Y83.1641
 X22.1030 Y84.9960
 X21.0450 Y86.8402
 X20.0101 Y88.6966
 X18.9982 Y90.5648
 X18.0095 Y92.4448
 X17.0440 Y94.3362
 X16.1020 Y96.2388
 X15.1832 Y98.1525
 X14.2881 Y100.0767
 X13.4167 Y102.0124
 X12.5689 Y103.9571
 X11.7449 Y105.9130
 X10.9448 Y107.8778
 X10.1687 Y109.8530
 X9.4166 Y111.8380
 X8.6888 Y113.8312
 X7.9852 Y115.8345
 X7.3060 Y117.8458
 X6.6512 Y119.8663
 X6.0211 Y121.8947
 X5.4155 Y123.9313
 X4.8347 Y125.9759
 X4.2787 Y128.0275
 X3.7475 Y130.0874
 X3.2415 Y132.1542
 X2.7604 Y134.2281
 X2.3047 Y136.3090
 X1.8742 Y138.3959
 X1.4690 Y140.4890
 X1.0894 Y142.5891
 X0.7352 Y144.6932
 X0.4068 Y146.8046
 X0.1041 Y148.9218
 X-0.1728 Y151.0441
 X-0.4237 Y153.1704
 X-0.6486 Y155.3018
 X-0.8474 Y157.4382
 X-1.0200 Y159.5787
 X-1.1663 Y161.7242
 X-1.2862 Y163.8717
 X-1.3796 Y166.0232
 X-1.4465 Y168.1798
 X-1.4866 Y170.3368
 X-1.5000 Y171.9578
 Y173.0422
 X-1.4866 Y174.6632
 X-1.4465 Y176.8202
 X-1.3796 Y178.9748
 X-1.2862 Y181.1283
 X-1.1663 Y183.2758
 X-1.0200 Y185.4213
 X-0.8474 Y187.5618
 X-0.6486 Y189.6972
 X-0.4237 Y191.8296
 X-0.1728 Y193.9559
 X0.1041 Y196.0783
 X0.4068 Y198.1935
 X0.7352 Y200.3047
 X1.0894 Y202.4108
 X1.4690 Y204.5110
 X1.8742 Y206.6041
 X2.3047 Y208.6910
 X2.7605 Y210.7720
 X3.2415 Y212.8448
 X3.7475 Y214.9126
 X4.2787 Y216.9725
 X4.8347 Y219.0231
 X5.4155 Y221.0687
 X6.0211 Y223.1044
 X6.6512 Y225.1327
 X7.3060 Y227.1532
 X7.9852 Y229.1645
 X8.6888 Y231.1677
 X9.4166 Y233.1620
 X10.1687 Y235.1462
 X10.9447 Y237.1210
 X11.7449 Y239.0871
 X12.5689 Y241.0421
 X13.4166 Y242.9865
 X14.2881 Y244.9232
 X15.1833 Y246.8471
 X16.1020 Y248.7605
 X17.0440 Y250.6627
 X18.0095 Y252.5551
 X18.9982 Y254.4343
 X20.0101 Y256.3034
 X21.0451 Y258.1596
 X22.1031 Y260.0034
 X23.1837 Y261.8351
 X24.2873 Y263.6547
 X25.4137 Y265.4614
 X26.5626 Y267.2549
 X27.7341 Y269.0353
 X28.9278 Y270.8013
 X30.1439 Y272.5554
 X31.3827 Y274.2948
 X32.6433 Y276.0186
 X33.9256 Y277.7291
 X35.2302 Y279.4257
 X36.5565 Y281.1071
 X37.9050 Y282.7747
 X39.2749 Y284.4250
 X40.6664 Y286.0609
 X42.0794 Y287.6810
 X43.5141 Y289.2851
 X44.9695 Y290.8715
 X46.4464 Y292.4440
 X47.9436 Y293.9974
 X49.0811 Y295.1539
 X49.4642 Y295.5362
 X49.8467 Y295.9188
 X51.0027 Y297.0567
 X52.5567 Y298.5537
 X54.1281 Y300.0304
 X55.7158 Y301.4860
 X57.3198 Y302.9203
 X58.9396 Y304.3335
 X60.5751 Y305.7244
 X62.2261 Y307.0952
 X63.8927 Y308.4430
 X65.5739 Y309.7694
 X67.2700 Y311.0736
 X68.9805 Y312.3565
 X70.7056 Y313.6174
 X72.4448 Y314.8561
 X74.1980 Y316.0728
 X75.9651 Y317.2662
 X77.7451 Y318.4372
 X79.5385 Y319.5860
 X81.3451 Y320.7127
 X83.1646 Y321.8163
 X84.9963 Y322.8966
 X86.8404 Y323.9547
 X88.6969 Y324.9896
 X90.5653 Y326.0014
 X92.4453 Y326.9899
 X94.3363 Y327.9550
 X96.2387 Y328.8981
 X98.1532 Y329.8174
 X100.0775 Y330.7108
 X102.0119 Y331.5842
 X103.9585 Y332.4319
 X105.9133 Y333.2550
 X107.8788 Y334.0547
 X109.8535 Y334.8313
 X111.8381 Y335.5839
 X113.8325 Y336.3113
 X115.8348 Y337.0144
 X117.8466 Y337.6930
 X119.8661 Y338.3487
 X121.8947 Y338.9782
 X123.9313 Y339.5844
 X125.9759 Y340.1644
 X128.0275 Y340.7212
 X130.0874 Y341.2518
 X132.1540 Y341.7581
 X134.2280 Y342.2393
 X136.3092 Y342.6953
 X138.3958 Y343.1249
 X140.4887 Y343.5314
 X142.5897 Y343.9108
 X144.6952 Y344.2637
 X146.8060 Y344.5935
 X148.9223 Y344.8963
 X151.0442 Y345.1716
 X153.1700 Y345.4237
 X155.3028 Y345.6487
 X157.4383 Y345.8474
 X159.5787 Y346.0199
 X161.7245 Y346.1662
 X163.8715 Y346.2852
 X166.0248 Y346.3800
 X168.1802 Y346.4466
 X170.3368 Y346.4859
 X171.9575 Y346.5000
 X173.0425
 X174.6632 Y346.4859
 X176.8198 Y346.4466
 X178.9772 Y346.3800
 X181.1285 Y346.2852
 X183.2755 Y346.1662
 X185.4213 Y346.0199
 X187.5617 Y345.8474
 X189.6982 Y345.6487
 X191.8301 Y345.4237
 X193.9558 Y345.1716
 X196.0776 Y344.8963
 X198.1959 Y344.5935
 X200.3069 Y344.2637
 X202.4104 Y343.9108
 X204.5113 Y343.5314
 X206.6042 Y343.1249
 X208.6908 Y342.6953
 X210.7720 Y342.2393
 X212.8470 Y341.7581
 X214.9127 Y341.2518
 X216.9724 Y340.7212
 X219.0251 Y340.1644
 X221.0688 Y339.5844
 X223.1052 Y338.9782
 X225.1348 Y338.3487
 X227.1546 Y337.6930
 X229.1643 Y337.0143
 X231.1673 Y336.3113
 X233.1618 Y335.5840
 X235.1475 Y334.8313
 X237.1213 Y334.0547
 X239.0867 Y333.2550
 X241.0414 Y332.4320
 X242.9890 Y331.5843
 X244.9235 Y330.7108
 X246.8477 Y329.8173
 X248.7608 Y328.8981
 X250.6640 Y327.9551
 X252.5550 Y326.9899
 X254.4352 Y326.0014
 X256.3035 Y324.9896
 X258.1594 Y323.9547
 X260.0043 Y322.8966
 X261.8351 Y321.8163
 X263.6548 Y320.7127
 X265.4615 Y319.5860
 X267.2548 Y318.4372
 X269.0351 Y317.2661
 X270.8013 Y316.0728
 X272.5556 Y314.8562
 X274.2949 Y313.6173
 X276.0185 Y312.3566
 X277.7311 Y311.0737
 X279.4260 Y309.7692
 X281.1070 Y308.4432
 X282.7747 Y307.0953
 X284.4251 Y305.7244
 X286.0609 Y304.3336
 X287.6810 Y302.9203
 X289.2850 Y301.4858
 X290.8714 Y300.0304
 X292.4439 Y298.5538
 X293.9976 Y297.0566
 X295.1542 Y295.9182
 X295.5357 Y295.5357
 X295.9182 Y295.1542
 X297.0566 Y293.9976
 X298.5538 Y292.4439
 X300.0303 Y290.8716
 X301.4868 Y289.2850
 X302.9204 Y287.6808
 X304.3336 Y286.0609
 X305.7244 Y284.4251
 X307.0951 Y282.7749
 X308.4442 Y281.1070
 X309.7693 Y279.4259
 X311.0757 Y277.7291
 X312.3567 Y276.0183
 X313.6173 Y274.2949
 X314.8562 Y272.5556
 X316.0728 Y270.8013
 X317.2661 Y269.0351
 X318.4372 Y267.2548
 X319.5860 Y265.4615
 X320.7127 Y263.6548
 X321.8162 Y261.8352
 X322.8974 Y260.0036
 X323.9558 Y258.1593
 X324.9897 Y256.3033
 X326.0024 Y254.4342
 X326.9898 Y252.5553
 X327.9571 Y250.6630
 X328.8984 Y248.7603
 X329.8170 Y246.8473
 X330.7129 Y244.9234
 X331.5846 Y242.9864
 X332.4319 Y241.0416
 X333.2550 Y239.0867
 X334.0547 Y237.1212
 X334.8313 Y235.1465
 X335.5839 Y233.1619
 X336.3112 Y231.1677
 X337.0154 Y229.1642
 X337.6931 Y227.1530
 X338.3486 Y225.1331
 X338.9792 Y223.1044
 X339.5845 Y221.0683
 X340.1644 Y219.0231
 X340.7211 Y216.9726
 X341.2517 Y214.9128
 X341.7591 Y212.8450
 X342.2393 Y210.7718
 X342.6951 Y208.6915
 X343.1269 Y206.6043
 X343.5315 Y204.5106
 X343.9107 Y202.4110
 X344.2657 Y200.3048
 X344.5936 Y198.1933
 X344.8962 Y196.0784
 X345.1736 Y193.9558
 X345.4238 Y191.8293
 X345.6487 Y189.6972
 X345.8474 Y187.5617
 X346.0199 Y185.4213
 X346.1662 Y183.2755
 X346.2852 Y181.1285
 X346.3800 Y178.9752
 X346.4466 Y176.8198
 X346.4859 Y174.6632
 X346.5000 Y173.0425
 Y172.5000
 Z-7.6667
 Y171.9575
 X346.4859 Y170.3368
 X346.4466 Y168.1802
 X346.3800 Y166.0228
 X346.2852 Y163.8715
 X346.1662 Y161.7245
 X346.0199 Y159.5787
 X345.8474 Y157.4383
 X345.6487 Y155.3018
 X345.4238 Y153.1706
 X345.1736 Y151.0442
 X344.8962 Y148.9217
 X344.5936 Y146.8048
 X344.2657 Y144.6931
 X343.9107 Y142.5889
 X343.5315 Y140.4894
 X343.1269 Y138.3957
 X342.6951 Y136.3085
 X342.2393 Y134.2283
 X341.7591 Y132.1540
 X341.2517 Y130.0871
 X340.7212 Y128.0275
 X340.1644 Y125.9759
 X339.5845 Y123.9317
 X338.9792 Y121.8947
 X338.3486 Y119.8659
 X337.6931 Y117.8460
 X337.0154 Y115.8348
 X336.3112 Y113.8312
 X335.5839 Y111.8381
 X334.8313 Y109.8527
 X334.0547 Y107.8777
 X333.2550 Y105.9133
 X332.4319 Y103.9575
 X331.5845 Y102.0125
 X330.7129 Y100.0765
 X329.8171 Y98.1523
 X328.8984 Y96.2390
 X327.9571 Y94.3359
 X326.9898 Y92.4446
 X326.0024 Y90.5649
 X324.9896 Y88.6966
 X323.9558 Y86.8404
 X322.8975 Y84.9958
 X321.8162 Y83.1640
 X320.7127 Y81.3447
 X319.5859 Y79.5381
 X318.4372 Y77.7449
 X317.2662 Y75.9647
 X316.0727 Y74.1977
 X314.8561 Y72.4445
 X313.6174 Y70.7054
 X312.3569 Y68.9807
 X311.0756 Y67.2696
 X309.7692 Y65.5734
 X308.4440 Y63.8924
 X307.0951 Y62.2257
 X305.7244 Y60.5749
 X304.3335 Y58.9395
 X302.9204 Y57.3197
 X301.4870 Y55.7156
 X300.0303 Y54.1277
 X298.5537 Y52.5564
 X297.0566 Y51.0024
 X295.9187 Y49.8465
 X295.5362 Y49.4641
 X295.1539 Y49.0809
 X293.9974 Y47.9434
 X292.4439 Y46.4463
 X290.8715 Y44.9695
 X289.2851 Y43.5140
 X287.6810 Y42.0794
 X286.0609 Y40.6663
 X284.4250 Y39.2751
 X282.7747 Y37.9051
 X281.1071 Y36.5566
 X279.4260 Y35.2306
 X277.7311 Y33.9259
 X276.0183 Y32.6432
 X274.2948 Y31.3829
 X272.5554 Y30.1442
 X270.8013 Y28.9280
 X269.0353 Y27.7344
 X267.2548 Y26.5629
 X265.4614 Y25.4141
 X263.6547 Y24.2876
 X261.8352 Y23.1842
 X260.0044 Y22.1034
 X258.1594 Y21.0453
 X256.3035 Y20.0104
 X254.4353 Y18.9985
 X252.5551 Y18.0098
 X250.6637 Y17.0442
 X248.7605 Y16.1023
 X246.8481 Y15.1836
 X244.9233 Y14.2885
 X242.9885 Y13.4168
 X241.0418 Y12.5690
 X239.0871 Y11.7451
 X237.1212 Y10.9450
 X235.1472 Y10.1689
 X233.1619 Y9.4168
 X231.1677 Y8.6889
 X229.1646 Y7.9854
 X227.1544 Y7.3062
 X225.1348 Y6.6514
 X223.1052 Y6.0211
 X221.0688 Y5.4155
 X219.0251 Y4.8347
 X216.9724 Y4.2786
 X214.9128 Y3.7476
 X212.8469 Y3.2414
 X210.7719 Y2.7604
 X208.6910 Y2.3046
 X206.6041 Y1.8740
 X204.5110 Y1.4689
 X202.4109 Y1.0892
 X200.3068 Y0.7351
 X198.1955 Y0.4066
 X196.0782 Y0.1039
 X193.9559 Y-0.1730
 X191.8296 Y-0.4240
 X189.6982 Y-0.6489
 X187.5618 Y-0.8477
 X185.4213 Y-1.0203
 X183.2758 Y-1.1666
 X181.1283 Y-1.2865
 X178.9768 Y-1.3800
 X176.8202 Y-1.4468
 X174.6632 Y-1.4869
 X173.0422 Y-1.5004
 X171.9578
 X170.3368 Y-1.4869
 X168.1798 Y-1.4468
 X166.0252 Y-1.3800
 X163.8717 Y-1.2865
 X161.7242 Y-1.1666
 X159.5787 Y-1.0203
 X157.4382 Y-0.8477
 X155.3028 Y-0.6489
 X153.1704 Y-0.4240
 X151.0441 Y-0.1730
 X148.9217 Y0.1039
 X146.8064 Y0.4066
 X144.6953 Y0.7351
 X142.5892 Y1.0892
 X140.4890 Y1.4689
 X138.3959 Y1.8740
 X136.3090 Y2.3046
 X134.2281 Y2.7604
 X132.1541 Y3.2414
 X130.0873 Y3.7475
 X128.0275 Y4.2787
 X125.9759 Y4.8347
 X123.9313 Y5.4155
 X121.8947 Y6.0211
 X119.8661 Y6.6514
 X117.8468 Y7.3061
 X115.8345 Y7.9853
 X113.8322 Y8.6889
 X111.8380 Y9.4168
 X109.8538 Y10.1689
 X107.8790 Y10.9449
 X105.9129 Y11.7451
 X103.9581 Y12.5691
 X102.0123 Y13.4169
 X100.0777 Y14.2885
 X98.1528 Y15.1835
 X96.2391 Y16.1023
 X94.3366 Y17.0442
 X92.4452 Y18.0099
 X90.5652 Y18.9985
 X88.6969 Y20.0104
 X86.8405 Y21.0453
 X84.9962 Y22.1034
 X83.1645 Y23.1842
 X81.3452 Y24.2877
 X79.5386 Y25.4141
 X77.7450 Y26.5629
 X75.9649 Y27.7344
 X74.1980 Y28.9281
 X72.4449 Y30.1443
 X70.7057 Y31.3828
 X68.9806 Y32.6433
 X67.2700 Y33.9260
 X65.5739 Y35.2304
 X63.8926 Y36.5568
 X62.2262 Y37.9051
 X60.5752 Y39.2750
 X58.9396 Y40.6664
 X57.3198 Y42.0794
 X55.7158 Y43.5138
 X54.1281 Y44.9695
 X52.5567 Y46.4464
 X51.0029 Y47.9434
 X49.8470 Y49.0803
 X49.4637 Y49.4636
 X49.0806 Y49.8468
 X47.9435 Y51.0025
 X46.4465 Y52.5563
 X44.9695 Y54.1278
 X43.5139 Y55.7156
 X42.0794 Y57.3195
 X40.6664 Y58.9394
 X39.2748 Y60.5749
 X37.9050 Y62.2260
 X36.5567 Y63.8922
 X35.2303 Y65.5736
 X33.9257 Y67.2696
 X32.6431 Y68.9804
 X31.3825 Y70.7055
 X30.1440 Y72.4446
 X28.9279 Y74.1977
 X27.7341 Y75.9645
 X26.5626 Y77.7448
 X25.4137 Y79.5382
 X24.2874 Y81.3448
 X23.1837 Y83.1641
 X22.1030 Y84.9960
 X21.0450 Y86.8402
 X20.0101 Y88.6966
 X18.9982 Y90.5648
 X18.0095 Y92.4448
 X17.0440 Y94.3362
 X16.1020 Y96.2388
 X15.1832 Y98.1525
 X14.2881 Y100.0767
 X13.4167 Y102.0124
 X12.5689 Y103.9571
 X11.7449 Y105.9130
 X10.9448 Y107.8778
 X10.1687 Y109.8530
 X9.4166 Y111.8380
 X8.6888 Y113.8312
 X7.9852 Y115.8345
 X7.3060 Y117.8458
 X6.6512 Y119.8663
 X6.0211 Y121.8947
 X5.4155 Y123.9313
 X4.8347 Y125.9759
 X4.2787 Y128.0275
 X3.7475 Y130.0874
 X3.2415 Y132.1542
 X2.7604 Y134.2281
 X2.3047 Y136.3090
 X1.8742 Y138.3959
 X1.4690 Y140.4890
 X1.0894 Y142.5891
 X0.7352 Y144.6932
 X0.4068 Y146.8046
 X0.1041 Y148.9218
 X-0.1728 Y151.0441
 X-0.4237 Y153.1704
 X-0.6486 Y155.3018
 X-0.8474 Y157.4382
 X-1.0200 Y159.5787
 X-1.1663 Y161.7242
 X-1.2862 Y163.8717
 X-1.3796 Y166.0232
 X-1.4465 Y168.1798
 X-1.4866 Y170.3368
 X-1.5000 Y171.9578
 Y173.0422
 X-1.4866 Y174.6632
 X-1.4465 Y176.8202
 X-1.3796 Y178.9748
 X-1.2862 Y181.1283
 X-1.1663 Y183.2758
 X-1.0200 Y185.4213
 X-0.8474 Y187.5618
 X-0.6486 Y189.6972
 X-0.4237 Y191.8296
 X-0.1728 Y193.9559
 X0.1041 Y196.0783
 X0.4068 Y198.1935
 X0.7352 Y200.3047
 X1.0894 Y202.4108
 X1.4690 Y204.5110
 X1.8742 Y206.6041
 X2.3047 Y208.6910
 X2.7605 Y210.7720
 X3.2415 Y212.8448
 X3.7475 Y214.9126
 X4.2787 Y216.9725
 X4.8347 Y219.0231
 X5.4155 Y221.0687
 X6.0211 Y223.1044
 X6.6512 Y225.1327
 X7.3060 Y227.1532
 X7.9852 Y229.1645
 X8.6888 Y231.1677
 X9.4166 Y233.1620
 X10.1687 Y235.1462
 X10.9447 Y237.1210
 X11.7449 Y239.0871
 X12.5689 Y241.0421
 X13.4166 Y242.9865
 X14.2881 Y244.9232
 X15.1833 Y246.8471
 X16.1020 Y248.7605
 X17.0440 Y250.6627
 X18.0095 Y252.5551
 X18.9982 Y254.4343
 X20.0101 Y256.3034
 X21.0451 Y258.1596
 X22.1031 Y260.0034
 X23.1837 Y261.8351
 X24.2873 Y263.6547
 X25.4137 Y265.4614
 X26.5626 Y267.2549
 X27.7341 Y269.0353
 X28.9278 Y270.8013
 X30.1439 Y272.5554
 X31.3827 Y274.2948
 X32.6433 Y276.0186
 X33.9256 Y277.7291
 X35.2302 Y279.4257
 X36.5565 Y281.1071
 X37.9050 Y282.7747
 X39.2749 Y284.4250
 X40.6664 Y286.0609
 X42.0794 Y287.6810
 X43.5141 Y289.2851
 X44.9695 Y290.8715
 X46.4464 Y292.4440
 X47.9436 Y293.9974
 X49.0811 Y295.1539
 X49.4642 Y295.5362
 X49.8467 Y295.9188
 X51.0027 Y297.0567
 X52.5567 Y298.5537
 X54.1281 Y300.0304
 X55.7158 Y301.4860
 X57.3198 Y302.9203
 X58.9396 Y304.3335
 X60.5751 Y305.7244
 X62.2261 Y307.0952
 X63.8927 Y308.4430
 X65.5739 Y309.7694
 X67.2700 Y311.0736
 X68.9805 Y312.3565
 X70.7056 Y313.6174
 X72.4448 Y314.8561
 X74.1980 Y316.0728
 X75.9651 Y317.2662
 X77.7451 Y318.4372
 X79.5385 Y319.5860
 X81.3451 Y320.7127
 X83.1646 Y321.8163
 X84.9963 Y322.8966
 X86.8404 Y323.9547
 X88.6969 Y324.9896
 X90.5653 Y326.0014
 X92.4453 Y326.9899
 X94.3363 Y327.9550
 X96.2387 Y328.8981
 X98.1532 Y329.8174
 X100.0775 Y330.7108
 X102.0119 Y331.5842
 X103.9585 Y332.4319
 X105.9133 Y333.2550
 X107.8788 Y334.0547
 X109.8535 Y334.8313
 X111.8381 Y335.5839
 X113.8325 Y336.3113
 X115.8348 Y337.0144
 X117.8466 Y337.6930
 X119.8661 Y338.3487
 X121.8947 Y338.9782
 X123.9313 Y339.5844
 X125.9759 Y340.1644
 X128.0275 Y340.7212
 X130.0874 Y341.2518
 X132.1540 Y341.7581
 X134.2280 Y342.2393
 X136.3092 Y342.6953
 X138.3958 Y343.1249
 X140.4887 Y343.5314
 X142.5897 Y343.9108
 X144.6952 Y344.2637
 X146.8060 Y344.5935
 X148.9223 Y344.8963
 X151.0442 Y345.1716
 X153.1700 Y345.4237
 X155.3028 Y345.6487
 X157.4383 Y345.8474
 X159.5787 Y346.0199
 X161.7245 Y346.1662
 X163.8715 Y346.2852
 X166.0248 Y346.3800
 X168.1802 Y346.4466
 X170.3368 Y346.4859
 X171.9575 Y346.5000
 X173.0425
 X174.6632 Y346.4859
 X176.8198 Y346.4466
 X178.9772 Y346.3800
 X181.1285 Y346.2852
 X183.2755 Y346.1662
 X185.4213 Y346.0199
 X187.5617 Y345.8474
 X189.6982 Y345.6487
 X191.8301 Y345.4237
 X193.9558 Y345.1716
 X196.0776 Y344.8963
 X198.1959 Y344.5935
 X200.3069 Y344.2637
 X202.4104 Y343.9108
 X204.5113 Y343.5314
 X206.6042 Y343.1249
 X208.6908 Y342.6953
 X210.7720 Y342.2393
 X212.8470 Y341.7581
 X214.9127 Y341.2518
 X216.9724 Y340.7212
 X219.0251 Y340.1644
 X221.0688 Y339.5844
 X223.1052 Y338.9782
 X225.1348 Y338.3487
 X227.1546 Y337.6930
 X229.1643 Y337.0143
 X231.1673 Y336.3113
 X233.1618 Y335.5840
 X235.1475 Y334.8313
 X237.1213 Y334.0547
 X239.0867 Y333.2550
 X241.0414 Y332.4320
 X242.9890 Y331.5843
 X244.9235 Y330.7108
 X246.8477 Y329.8173
 X248.7608 Y328.8981
 X250.6640 Y327.9551
 X252.5550 Y326.9899
 X254.4352 Y326.0014
 X256.3035 Y324.9896
 X258.1594 Y323.9547
 X260.0043 Y322.8966
 X261.8351 Y321.8163
 X263.6548 Y320.7127
 X265.4615 Y319.5860
 X267.2548 Y318.4372
 X269.0351 Y317.2661
 X270.8013 Y316.0728
 X272.5556 Y314.8562
 X274.2949 Y313.6173
 X276.0185 Y312.3566
 X277.7311 Y311.0737
 X279.4260 Y309.7692
 X281.1070 Y308.4432
 X282.7747 Y307.0953
 X284.4251 Y305.7244
 X286.0609 Y304.3336
 X287.6810 Y302.9203
 X289.2850 Y301.4858
 X290.8714 Y300.0304
 X292.4439 Y298.5538
 X293.9976 Y297.0566
 X295.1542 Y295.9182
 X295.5357 Y295.5357
 X295.9182 Y295.1542
 X297.0566 Y293.9976
 X298.5538 Y292.4439
 X300.0303 Y290.8716
 X301.4868 Y289.2850
 X302.9204 Y287.6808
 X304.3336 Y286.0609
 X305.7244 Y284.4251
 X307.0951 Y282.7749
 X308.4442 Y281.1070
 X309.7693 Y279.4259
 X311.0757 Y277.7291
 X312.3567 Y276.0183
 X313.6173 Y274.2949
 X314.8562 Y272.5556
 X316.0728 Y270.8013
 X317.2661 Y269.0351
 X318.4372 Y267.2548
 X319.5860 Y265.4615
 X320.7127 Y263.6548
 X321.8162 Y261.8352
 X322.8974 Y260.0036
 X323.9558 Y258.1593
 X324.9897 Y256.3033
 X326.0024 Y254.4342
 X326.9898 Y252.5553
 X327.9571 Y250.6630
 X328.8984 Y248.7603
 X329.8170 Y246.8473
 X330.7129 Y244.9234
 X331.5846 Y242.9864
 X332.4319 Y241.0416
 X333.2550 Y239.0867
 X334.0547 Y237.1212
 X334.8313 Y235.1465
 X335.5839 Y233.1619
 X336.3112 Y231.1677
 X337.0154 Y229.1642
 X337.6931 Y227.1530
 X338.3486 Y225.1331
 X338.9792 Y223.1044
 X339.5845 Y221.0683
 X340.1644 Y219.0231
 X340.7211 Y216.9726
 X341.2517 Y214.9128
 X341.7591 Y212.8450
 X342.2393 Y210.7718
 X342.6951 Y208.6915
 X343.1269 Y206.6043
 X343.5315 Y204.5106
 X343.9107 Y202.4110
 X344.2657 Y200.3048
 X344.5936 Y198.1933
 X344.8962 Y196.0784
 X345.1736 Y193.9558
 X345.4238 Y191.8293
 X345.6487 Y189.6972
 X345.8474 Y187.5617
 X346.0199 Y185.4213
 X346.1662 Y183.2755
 X346.2852 Y181.1285
 X346.3800 Y178.9752
 X346.4466 Y176.8198
 X346.4859 Y174.6632
 X346.5000 Y173.0425
 Y172.5000
 Z-11.5000
 Y171.9575
 X346.4859 Y170.3368
 X346.4466 Y168.1802
 X346.3800 Y166.0228
 X346.2852 Y163.8715
 X346.1662 Y161.7245
 X346.0199 Y159.5787
 X345.8474 Y157.4383
 X345.6487 Y155.3018
 X345.4238 Y153.1706
 X345.1736 Y151.0442
 X344.8962 Y148.9217
 X344.5936 Y146.8048
 X344.2657 Y144.6931
 X343.9107 Y142.5889
 X343.5315 Y140.4894
 X343.1269 Y138.3957
 X342.6951 Y136.3085
 X342.2393 Y134.2283
 X341.7591 Y132.1540
 X341.2517 Y130.0871
 X340.7212 Y128.0275
 X340.1644 Y125.9759
 X339.5845 Y123.9317
 X338.9792 Y121.8947
 X338.3486 Y119.8659
 X337.6931 Y117.8460
 X337.0154 Y115.8348
 X336.3112 Y113.8312
 X335.5839 Y111.8381
 X334.8313 Y109.8527
 X334.0547 Y107.8777
 X333.2550 Y105.9133
 X332.4319 Y103.9575
 X331.5845 Y102.0125
 X330.7129 Y100.0765
 X329.8171 Y98.1523
 X328.8984 Y96.2390
 X327.9571 Y94.3359
 X326.9898 Y92.4446
 X326.0024 Y90.5649
 X324.9896 Y88.6966
 X323.9558 Y86.8404
 X322.8975 Y84.9958
 X321.8162 Y83.1640
 X320.7127 Y81.3447
 X319.5859 Y79.5381
 X318.4372 Y77.7449
 X317.2662 Y75.9647
 X316.0727 Y74.1977
 X314.8561 Y72.4445
 X313.6174 Y70.7054
 X312.3569 Y68.9807
 X311.0756 Y67.2696
 X309.7692 Y65.5734
 X308.4440 Y63.8924
 X307.0951 Y62.2257
 X305.7244 Y60.5749
 X304.3335 Y58.9395
 X302.9204 Y57.3197
 X301.4870 Y55.7156
 X300.0303 Y54.1277
 X298.5537 Y52.5564
 X297.0566 Y51.0024
 X295.9187 Y49.8465
 X295.5362 Y49.4641
 X295.1539 Y49.0809
 X293.9974 Y47.9434
 X292.4439 Y46.4463
 X290.8715 Y44.9695
 X289.2851 Y43.5140
 X287.6810 Y42.0794
 X286.0609 Y40.6663
 X284.4250 Y39.2751
 X282.7747 Y37.9051
 X281.1071 Y36.5566
 X279.4260 Y35.2306
 X277.7311 Y33.9259
 X276.0183 Y32.6432
 X274.2948 Y31.3829
 X272.5554 Y30.1442
 X270.8013 Y28.9280
 X269.0353 Y27.7344
 X267.2548 Y26.5629
 X265.4614 Y25.4141
 X263.6547 Y24.2876
 X261.8352 Y23.1842
 X260.0044 Y22.1034
 X258.1594 Y21.0453
 X256.3035 Y20.0104
 X254.4353 Y18.9985
 X252.5551 Y18.0098
 X250.6637 Y17.0442
 X248.7605 Y16.1023
 X246.8481 Y15.1836
 X244.9233 Y14.2885
 X242.9885 Y13.4168
 X241.0418 Y12.5690
 X239.0871 Y11.7451
 X237.1212 Y10.9450
 X235.1472 Y10.1689
 X233.1619 Y9.4168
 X231.1677 Y8.6889
 X229.1646 Y7.9854
 X227.1544 Y7.3062
 X225.1348 Y6.6514
 X223.1052 Y6.0211
 X221.0688 Y5.4155
 X219.0251 Y4.8347
 X216.9724 Y4.2786
 X214.9128 Y3.7476
 X212.8469 Y3.2414
 X210.7719 Y2.7604
 X208.6910 Y2.3046
 X206.6041 Y1.8740
 X204.5110 Y1.4689
 X202.4109 Y1.0892
 X200.3068 Y0.7351
 X198.1955 Y0.4066
 X196.0782 Y0.1039
 X193.9559 Y-0.1730
 X191.8296 Y-0.4240
 X189.6982 Y-0.6489
 X187.5618 Y-0.8477
 X185.4213 Y-1.0203
 X183.2758 Y-1.1666
 X181.1283 Y-1.2865
 X178.9768 Y-1.3800
 X176.8202 Y-1.4468
 X174.6632 Y-1.4869
 X173.0422 Y-1.5004
 X171.9578
 X170.3368 Y-1.4869
 X168.1798 Y-1.4468
 X166.0252 Y-1.3800
 X163.8717 Y-1.2865
 X161.7242 Y-1.1666
 X159.5787 Y-1.0203
 X157.4382 Y-0.8477
 X155.3028 Y-0.6489
 X153.1704 Y-0.4240
 X151.0441 Y-0.1730
 X148.9217 Y0.1039
 X146.8064 Y0.4066
 X144.6953 Y0.7351
 X142.5892 Y1.0892
 X140.4890 Y1.4689
 X138.3959 Y1.8740
 X136.3090 Y2.3046
 X134.2281 Y2.7604
 X132.1541 Y3.2414
 X130.0873 Y3.7475
 X128.0275 Y4.2787
 X125.9759 Y4.8347
 X123.9313 Y5.4155
 X121.8947 Y6.0211
 X119.8661 Y6.6514
 X117.8468 Y7.3061
 X115.8345 Y7.9853
 X113.8322 Y8.6889
 X111.8380 Y9.4168
 X109.8538 Y10.1689
 X107.8790 Y10.9449
 X105.9129 Y11.7451
 X103.9581 Y12.5691
 X102.0123 Y13.4169
 X100.0777 Y14.2885
 X98.1528 Y15.1835
 X96.2391 Y16.1023
 X94.3366 Y17.0442
 X92.4452 Y18.0099
 X90.5652 Y18.9985
 X88.6969 Y20.0104
 X86.8405 Y21.0453
 X84.9962 Y22.1034
 X83.1645 Y23.1842
 X81.3452 Y24.2877
 X79.5386 Y25.4141
 X77.7450 Y26.5629
 X75.9649 Y27.7344
 X74.1980 Y28.9281
 X72.4449 Y30.1443
 X70.7057 Y31.3828
 X68.9806 Y32.6433
 X67.2700 Y33.9260
 X65.5739 Y35.2304
 X63.8926 Y36.5568
 X62.2262 Y37.9051
 X60.5752 Y39.2750
 X58.9396 Y40.6664
 X57.3198 Y42.0794
 X55.7158 Y43.5138
 X54.1281 Y44.9695
 X52.5567 Y46.4464
 X51.0029 Y47.9434
 X49.8470 Y49.0803
 X49.4637 Y49.4636
 X49.0806 Y49.8468
 X47.9435 Y51.0025
 X46.4465 Y52.5563
 X44.9695 Y54.1278
 X43.5139 Y55.7156
 X42.0794 Y57.3195
 X40.6664 Y58.9394
 X39.2748 Y60.5749
 X37.9050 Y62.2260
 X36.5567 Y63.8922
 X35.2303 Y65.5736
 X33.9257 Y67.2696
 X32.6431 Y68.9804
 X31.3825 Y70.7055
 X30.1440 Y72.4446
 X28.9279 Y74.1977
 X27.7341 Y75.9645
 X26.5626 Y77.7448
 X25.4137 Y79.5382
 X24.2874 Y81.3448
 X23.1837 Y83.1641
 X22.1030 Y84.9960
 X21.0450 Y86.8402
 X20.0101 Y88.6966
 X18.9982 Y90.5648
 X18.0095 Y92.4448
 X17.0440 Y94.3362
 X16.1020 Y96.2388
 X15.1832 Y98.1525
 X14.2881 Y100.0767
 X13.4167 Y102.0124
 X12.5689 Y103.9571
 X11.7449 Y105.9130
 X10.9448 Y107.8778
 X10.1687 Y109.8530
 X9.4166 Y111.8380
 X8.6888 Y113.8312
 X7.9852 Y115.8345
 X7.3060 Y117.8458
 X6.6512 Y119.8663
 X6.0211 Y121.8947
 X5.4155 Y123.9313
 X4.8347 Y125.9759
 X4.2787 Y128.0275
 X3.7475 Y130.0874
 X3.2415 Y132.1542
 X2.7604 Y134.2281
 X2.3047 Y136.3090
 X1.8742 Y138.3959
 X1.4690 Y140.4890
 X1.0894 Y142.5891
 X0.7352 Y144.6932
 X0.4068 Y146.8046
 X0.1041 Y148.9218
 X-0.1728 Y151.0441
 X-0.4237 Y153.1704
 X-0.6486 Y155.3018
 X-0.8474 Y157.4382
 X-1.0200 Y159.5787
 X-1.1663 Y161.7242
 X-1.2862 Y163.8717
 X-1.3796 Y166.0232
 X-1.4465 Y168.1798
 X-1.4866 Y170.3368
 X-1.5000 Y171.9578
 Y173.0422
 X-1.4866 Y174.6632
 X-1.4465 Y176.8202
 X-1.3796 Y178.9748
 X-1.2862 Y181.1283
 X-1.1663 Y183.2758
 X-1.0200 Y185.4213
 X-0.8474 Y187.5618
 X-0.6486 Y189.6972
 X-0.4237 Y191.8296
 X-0.1728 Y193.9559
 X0.1041 Y196.0783
 X0.4068 Y198.1935
 X0.7352 Y200.3047
 X1.0894 Y202.4108
 X1.4690 Y204.5110
 X1.8742 Y206.6041
 X2.3047 Y208.6910
 X2.7605 Y210.7720
 X3.2415 Y212.8448
 X3.7475 Y214.9126
 X4.2787 Y216.9725
 X4.8347 Y219.0231
 X5.4155 Y221.0687
 X6.0211 Y223.1044
 X6.6512 Y225.1327
 X7.3060 Y227.1532
 X7.9852 Y229.1645
 X8.6888 Y231.1677
 X9.4166 Y233.1620
 X10.1687 Y235.1462
 X10.9447 Y237.1210
 X11.7449 Y239.0871
 X12.5689 Y241.0421
 X13.4166 Y242.9865
 X14.2881 Y244.9232
 X15.1833 Y246.8471
 X16.1020 Y248.7605
 X17.0440 Y250.6627
 X18.0095 Y252.5551
 X18.9982 Y254.4343
 X20.0101 Y256.3034
 X21.0451 Y258.1596
 X22.1031 Y260.0034
 X23.1837 Y261.8351
 X24.2873 Y263.6547
 X25.4137 Y265.4614
 X26.5626 Y267.2549
 X27.7341 Y269.0353
 X28.9278 Y270.8013
 X30.1439 Y272.5554
 X31.3827 Y274.2948
 X32.6433 Y276.0186
 X33.9256 Y277.7291
 X35.2302 Y279.4257
 X36.5565 Y281.1071
 X37.9050 Y282.7747
 X39.2749 Y284.4250
 X40.6664 Y286.0609
 X42.0794 Y287.6810
 X43.5141 Y289.2851
 X44.9695 Y290.8715
 X46.4464 Y292.4440
 X47.9436 Y293.9974
 X49.0811 Y295.1539
 X49.4642 Y295.5362
 X49.8467 Y295.9188
 X51.0027 Y297.0567
 X52.5567 Y298.5537
 X54.1281 Y300.0304
 X55.7158 Y301.4860
 X57.3198 Y302.9203
 X58.9396 Y304.3335
 X60.5751 Y305.7244
 X62.2261 Y307.0952
 X63.8927 Y308.4430
 X65.5739 Y309.7694
 X67.2700 Y311.0736
 X68.9805 Y312.3565
 X70.7056 Y313.6174
 X72.4448 Y314.8561
 X74.1980 Y316.0728
 X75.9651 Y317.2662
 X77.7451 Y318.4372
 X79.5385 Y319.5860
 X81.3451 Y320.7127
 X83.1646 Y321.8163
 X84.9963 Y322.8966
 X86.8404 Y323.9547
 X88.6969 Y324.9896
 X90.5653 Y326.0014
 X92.4453 Y326.9899
 X94.3363 Y327.9550
 X96.2387 Y328.8981
 X98.1532 Y329.8174
 X100.0775 Y330.7108
 X102.0119 Y331.5842
 X103.9585 Y332.4319
 X105.9133 Y333.2550
 X107.8788 Y334.0547
 X109.8535 Y334.8313
 X111.8381 Y335.5839
 X113.8325 Y336.3113
 X115.8348 Y337.0144
 X117.8466 Y337.6930
 X119.8661 Y338.3487
 X121.8947 Y338.9782
 X123.9313 Y339.5844
 X125.9759 Y340.1644
 X128.0275 Y340.7212
 X130.0874 Y341.2518
 X132.1540 Y341.7581
 X134.2280 Y342.2393
 X136.3092 Y342.6953
 X138.3958 Y343.1249
 X140.4887 Y343.5314
 X142.5897 Y343.9108
 X144.6952 Y344.2637
 X146.8060 Y344.5935
 X148.9223 Y344.8963
 X151.0442 Y345.1716
 X153.1700 Y345.4237
 X155.3028 Y345.6487
 X157.4383 Y345.8474
 X159.5787 Y346.0199
 X161.7245 Y346.1662
 X163.8715 Y346.2852
 X166.0248 Y346.3800
 X168.1802 Y346.4466
 X170.3368 Y346.4859
 X171.9575 Y346.5000
 X173.0425
 X174.6632 Y346.4859
 X176.8198 Y346.4466
 X178.9772 Y346.3800
 X181.1285 Y346.2852
 X183.2755 Y346.1662
 X185.4213 Y346.0199
 X187.5617 Y345.8474
 X189.6982 Y345.6487
 X191.8301 Y345.4237
 X193.9558 Y345.1716
 X196.0776 Y344.8963
 X198.1959 Y344.5935
 X200.3069 Y344.2637
 X202.4104 Y343.9108
 X204.5113 Y343.5314
 X206.6042 Y343.1249
 X208.6908 Y342.6953
 X210.7720 Y342.2393
 X212.8470 Y341.7581
 X214.9127 Y341.2518
 X216.9724 Y340.7212
 X219.0251 Y340.1644
 X221.0688 Y339.5844
 X223.1052 Y338.9782
 X225.1348 Y338.3487
 X227.1546 Y337.6930
 X229.1643 Y337.0143
 X231.1673 Y336.3113
 X233.1618 Y335.5840
 X235.1475 Y334.8313
 X237.1213 Y334.0547
 X239.0867 Y333.2550
 X241.0414 Y332.4320
 X242.9890 Y331.5843
 X244.9235 Y330.7108
 X246.8477 Y329.8173
 X248.7608 Y328.8981
 X250.6640 Y327.9551
 X252.5550 Y326.9899
 X254.4352 Y326.0014
 X256.3035 Y324.9896
 X258.1594 Y323.9547
 X260.0043 Y322.8966
 X261.8351 Y321.8163
 X263.6548 Y320.7127
 X265.4615 Y319.5860
 X267.2548 Y318.4372
 X269.0351 Y317.2661
 X270.8013 Y316.0728
 X272.5556 Y314.8562
 X274.2949 Y313.6173
 X276.0185 Y312.3566
 X277.7311 Y311.0737
 X279.4260 Y309.7692
 X281.1070 Y308.4432
 X282.7747 Y307.0953
 X284.4251 Y305.7244
 X286.0609 Y304.3336
 X287.6810 Y302.9203
 X289.2850 Y301.4858
 X290.8714 Y300.0304
 X292.4439 Y298.5538
 X293.9976 Y297.0566
 X295.1542 Y295.9182
 X295.5357 Y295.5357
 X295.9182 Y295.1542
 X297.0566 Y293.9976
 X298.5538 Y292.4439
 X300.0303 Y290.8716
 X301.4868 Y289.2850
 X302.9204 Y287.6808
 X304.3336 Y286.0609
 X305.7244 Y284.4251
 X307.0951 Y282.7749
 X308.4442 Y281.1070
 X309.7693 Y279.4259
 X311.0757 Y277.7291
 X312.3567 Y276.0183
 X313.6173 Y274.2949
 X314.8562 Y272.5556
 X316.0728 Y270.8013
 X317.2661 Y269.0351
 X318.4372 Y267.2548
 X319.5860 Y265.4615
 X320.7127 Y263.6548
 X321.8162 Y261.8352
 X322.8974 Y260.0036
 X323.9558 Y258.1593
 X324.9897 Y256.3033
 X326.0024 Y254.4342
 X326.9898 Y252.5553
 X327.9571 Y250.6630
 X328.8984 Y248.7603
 X329.8170 Y246.8473
 X330.7129 Y244.9234
 X331.5846 Y242.9864
 X332.4319 Y241.0416
 X333.2550 Y239.0867
 X334.0547 Y237.1212
 X334.8313 Y235.1465
 X335.5839 Y233.1619
 X336.3112 Y231.1677
 X337.0154 Y229.1642
 X337.6931 Y227.1530
 X338.3486 Y225.1331
 X338.9792 Y223.1044
 X339.5845 Y221.0683
 X340.1644 Y219.0231
 X340.7211 Y216.9726
 X341.2517 Y214.9128
 X341.7591 Y212.8450
 X342.2393 Y210.7718
 X342.6951 Y208.6915
 X343.1269 Y206.6043
 X343.5315 Y204.5106
 X343.9107 Y202.4110
 X344.2657 Y200.3048
 X344.5936 Y198.1933
 X344.8962 Y196.0784
 X345.1736 Y193.9558
 X345.4238 Y191.8293
 X345.6487 Y189.6972
 X345.8474 Y187.5617
 X346.0199 Y185.4213
 X346.1662 Y183.2755
 X346.2852 Y181.1285
 X346.3800 Y178.9752
 X346.4466 Y176.8198
 X346.4859 Y174.6632
 X346.5000 Y173.0425
 Y172.5000
G0 Z10.0000
M5 (stop spindle)
G04 P3 (wait for 3 seconds)
G0 Z10.0000
M2 (end program)
